icons/svg/24x24/maximize alt1/outline.svg

<svg width="24" height="24" fill="none" xmlns="http://www.w3.org/2000/svg">
  <path fill-rule="evenodd" clip-rule="evenodd" d="M15 3l2.293 2.293-3 3a.999.999 0 101.414 1.414l3-3L21 9V3h-6zM8.293 14.293l-3 3L3 15v6h6l-2.293-2.293 3-3a.999.999 0 10-1.414-1.414zM19 18a1 1 0 01-1 1h-5v2h5c1.654 0 3-1.346 3-3v-5h-2v5zM6 3h5v2H6a1 1 0 00-1 1v5H3V6c0-1.654 1.346-3 3-3z" fill="#000"/>
</svg>

<svg xmlns="http://www.w3.org/2000/svg" width="24" height="24" viewBox="0 0 24 24">
  <path fill-rule="evenodd" d="M15,3 L17.293,5.293 L14.293,8.293 C13.902,8.684 13.902,9.316 14.293,9.707 C14.488,9.902 14.744,10 15,10 C15.256,10 15.512,9.902 15.707,9.707 L18.707,6.707 L21,9 L21,3 L15,3 Z M8.293,14.293 L5.293,17.293 L3,15 L3,21 L9,21 L6.707,18.707 L9.707,15.707 C10.098,15.316 10.098,14.684 9.707,14.293 C9.316,13.902 8.684,13.902 8.293,14.293 L8.293,14.293 Z M19,18 C19,18.552 18.552,19 18,19 L13,19 L13,21 L18,21 C19.654,21 21,19.654 21,18 L21,13 L19,13 L19,18 Z M6,3 L11,3 L11,5 L6,5 C5.448,5 5,5.448 5,6 L5,11 L3,11 L3,6 C3,4.346 4.346,3 6,3 L6,3 Z"/>
</svg>
